X:141
T:RVW2/2/141 One Man Shall Mow
C:Frank Bailey, Coombe Bissett, Wwiltshire, 2 September 1904
L:1/8
Q:1/4=99
M:6/8
I:linebreak $
K:G
"^(Editorial suggestion  " D | G2 G (EF)G | FD z z z D | G2 G EFG |$[M:9/8] A2 B A G2 (GA)B | 
w: One|man shall mow _ my|mea- dow One|man shall ga- ther my|grass to- ge- ther and _ no|
[M:6/8] c3 B2 B | BdB A2 G/G/ |$ GBG E2 G | FAF DEF/F/ | G3 z2 |] 
w: more for we'll|let it go round on the|mer- ry- go- round and|one jol- ly boy all in a|row.|



